assets/image-acesso-ilimitado.svg

<svg width="96" height="72" viewBox="0 0 96 72" fill="none" xmlns="http://www.w3.org/2000/svg">
<g clip-path="url(#clip0)">
<path d="M94.4 59.2H88V4.8C87.9984 3.52746 87.4921 2.30751 86.5923 1.40769C85.6925 0.507864 84.4725 0.00162833 83.2 0L12.8 0C11.5275 0.00162833 10.3075 0.507864 9.40768 1.40769C8.50786 2.30751 8.00162 3.52746 7.99999 4.8V59.2H1.59999C1.38965 59.1992 1.18123 59.24 0.986738 59.3201C0.79225 59.4003 0.615544 59.5181 0.466808 59.6668C0.318072 59.8156 0.200248 59.9923 0.120128 60.1867C0.0400089 60.3812 -0.000820861 60.5897 -7.14628e-06 60.8V64.4C0.00162257 66.4151 0.802858 68.3473 2.22778 69.7722C3.6527 71.1971 5.58485 71.9984 7.59999 72H88.4C90.4151 71.9984 92.3473 71.1971 93.7722 69.7722C95.1971 68.3473 95.9984 66.4151 96 64.4V60.8C96.0008 60.5897 95.96 60.3812 95.8799 60.1867C95.7997 59.9923 95.6819 59.8156 95.5332 59.6668C95.3844 59.5181 95.2078 59.4003 95.0133 59.3201C94.8188 59.24 94.6103 59.1992 94.4 59.2ZM11.2 4.8C11.1992 4.58966 11.24 4.38123 11.3201 4.18675C11.4002 3.99226 11.5181 3.81555 11.6668 3.66682C11.8155 3.51808 11.9923 3.40025 12.1867 3.32014C12.3812 3.24002 12.5897 3.19919 12.8 3.2H83.2C83.4103 3.19919 83.6188 3.24002 83.8133 3.32014C84.0077 3.40025 84.1845 3.51808 84.3332 3.66682C84.4819 3.81555 84.5998 3.99226 84.6799 4.18675C84.76 4.38123 84.8008 4.58966 84.8 4.8V59.2H59.2C58.9898 59.1998 58.7816 59.2409 58.5873 59.3212C58.393 59.4014 58.2165 59.5192 58.0677 59.6677L55.3354 62.4H40.6646L37.9323 59.6923C37.7835 59.5438 37.607 59.426 37.4127 59.3458C37.2184 59.2655 37.0102 59.2244 36.8 59.2246H11.2V4.8ZM92.8 64.4C92.7984 65.5665 92.3343 66.6847 91.5095 67.5095C90.6847 68.3343 89.5664 68.7984 88.4 68.8H7.59999C6.43354 68.7984 5.31533 68.3343 4.49052 67.5095C3.66571 66.6847 3.20162 65.5665 3.19999 64.4V62.4H36.1354L38.8677 65.1323C39.0165 65.2808 39.193 65.3986 39.3873 65.4788C39.5816 65.5591 39.7898 65.6003 40 65.6H56C56.2102 65.6003 56.4184 65.5591 56.6127 65.4788C56.807 65.3986 56.9835 65.2808 57.1323 65.1323L59.8646 62.4H92.8V64.4Z" fill="#FFA819"/>
<path d="M81.6 54.4V8.00004C81.6008 7.78969 81.56 7.58127 81.4799 7.38678C81.3998 7.19229 81.2819 7.01559 81.1332 6.86685C80.9845 6.71812 80.8078 6.60029 80.6133 6.52017C80.4188 6.44005 80.2104 6.39922 80 6.40004H16C15.7897 6.39922 15.5812 6.44005 15.3868 6.52017C15.1923 6.60029 15.0156 6.71812 14.8668 6.86685C14.7181 7.01559 14.6003 7.19229 14.5201 7.38678C14.44 7.58127 14.3992 7.78969 14.4 8.00004V54.4C14.3992 54.6104 14.44 54.8188 14.5201 55.0133C14.6003 55.2078 14.7181 55.3845 14.8668 55.5332C15.0156 55.682 15.1923 55.7998 15.3868 55.8799C15.5812 55.96 15.7897 56.0008 16 56H80C80.2104 56.0008 80.4188 55.96 80.6133 55.8799C80.8078 55.7998 80.9845 55.682 81.1332 55.5332C81.2819 55.3845 81.3998 55.2078 81.4799 55.0133C81.56 54.8188 81.6008 54.6104 81.6 54.4ZM78.4 52.8H17.6V9.60004H78.4V52.8Z" fill="#FFA819"/>
<path d="M30.4 49.6H70.4C70.6103 49.6008 70.8188 49.56 71.0132 49.4799C71.2077 49.3997 71.3844 49.2819 71.5332 49.1332C71.6819 48.9845 71.7997 48.8077 71.8799 48.6133C71.96 48.4188 72.0008 48.2103 72 48V38.4C72.0008 38.1897 71.96 37.9812 71.8799 37.7867C71.7997 37.5923 71.6819 37.4156 71.5332 37.2668C71.3844 37.1181 71.2077 37.0003 71.0132 36.9201C70.8188 36.84 70.6103 36.7992 70.4 36.8H30.4C30.1897 36.7992 29.9812 36.84 29.7867 36.9201C29.5923 37.0003 29.4155 37.1181 29.2668 37.2668C29.1181 37.4156 29.0003 37.5923 28.9201 37.7867C28.84 37.9812 28.7992 38.1897 28.8 38.4V48C28.7992 48.2103 28.84 48.4188 28.9201 48.6133C29.0003 48.8077 29.1181 48.9845 29.2668 49.1332C29.4155 49.2819 29.5923 49.3997 29.7867 49.4799C29.9812 49.56 30.1897 49.6008 30.4 49.6ZM62.4 40H68.8V46.4H62.4V40ZM32 40H59.2V46.4H32V40Z" fill="#FFA819"/>
<path d="M36.8 41.6H35.2C34.7757 41.6 34.3687 41.7685 34.0686 42.0686C33.7686 42.3687 33.6 42.7756 33.6 43.2C33.6 43.6243 33.7686 44.0313 34.0686 44.3313C34.3687 44.6314 34.7757 44.8 35.2 44.8H36.8C37.2244 44.8 37.6313 44.6314 37.9314 44.3313C38.2314 44.0313 38.4 43.6243 38.4 43.2C38.4 42.7756 38.2314 42.3687 37.9314 42.0686C37.6313 41.7685 37.2244 41.6 36.8 41.6Z" fill="#FFA819"/>
<path d="M43.2 41.6H41.6C41.1757 41.6 40.7687 41.7685 40.4686 42.0686C40.1686 42.3687 40 42.7756 40 43.2C40 43.6243 40.1686 44.0313 40.4686 44.3313C40.7687 44.6314 41.1757 44.8 41.6 44.8H43.2C43.6243 44.8 44.0313 44.6314 44.3314 44.3313C44.6314 44.0313 44.8 43.6243 44.8 43.2C44.8 42.7756 44.6314 42.3687 44.3314 42.0686C44.0313 41.7685 43.6243 41.6 43.2 41.6Z" fill="#FFA819"/>
<path d="M49.6 41.6H48C47.5756 41.6 47.1687 41.7685 46.8686 42.0686C46.5686 42.3687 46.4 42.7756 46.4 43.2C46.4 43.6243 46.5686 44.0313 46.8686 44.3313C47.1687 44.6314 47.5756 44.8 48 44.8H49.6C50.0243 44.8 50.4313 44.6314 50.7314 44.3313C51.0314 44.0313 51.2 43.6243 51.2 43.2C51.2 42.7756 51.0314 42.3687 50.7314 42.0686C50.4313 41.7685 50.0243 41.6 49.6 41.6Z" fill="#FFA819"/>
<path d="M56 41.6H54.4C53.9757 41.6 53.5687 41.7685 53.2686 42.0686C52.9686 42.3687 52.8 42.7756 52.8 43.2C52.8 43.6243 52.9686 44.0313 53.2686 44.3313C53.5687 44.6314 53.9757 44.8 54.4 44.8H56C56.4244 44.8 56.8313 44.6314 57.1314 44.3313C57.4314 44.0313 57.6 43.6243 57.6 43.2C57.6 42.7756 57.4314 42.3687 57.1314 42.0686C56.8313 41.7685 56.4244 41.6 56 41.6Z" fill="#FFA819"/>
<path d="M26.0923 28.923C26.386 28.9209 26.6734 28.8383 26.9235 28.6842C27.1735 28.5301 27.3764 28.3105 27.5103 28.0491C27.6442 27.7877 27.7038 27.4946 27.6827 27.2016C27.6617 26.9087 27.5607 26.6272 27.3908 26.3876C26.2263 24.7618 25.6002 22.8121 25.6002 20.8123C25.6002 18.8124 26.2263 16.8628 27.3908 15.2369C27.5157 15.0655 27.6055 14.871 27.6549 14.6648C27.7043 14.4585 27.7123 14.2445 27.6786 14.0351C27.6448 13.8257 27.5699 13.625 27.4582 13.4447C27.3465 13.2644 27.2002 13.108 27.0277 12.9846C26.8552 12.8628 26.6604 12.7762 26.4544 12.7298C26.2485 12.6833 26.0354 12.678 25.8273 12.714C25.6193 12.75 25.4203 12.8266 25.242 12.9396C25.0636 13.0526 24.9092 13.1996 24.7877 13.3723C23.2361 15.5428 22.402 18.1442 22.402 20.8123C22.402 23.4804 23.2361 26.0817 24.7877 28.2523C24.9366 28.4593 25.1325 28.628 25.3593 28.7446C25.5861 28.8612 25.8373 28.9224 26.0923 28.923Z" fill="#FFA819"/>
<path d="M31.8954 25.5877C32.1889 25.5869 32.4766 25.5054 32.727 25.3521C32.9773 25.1988 33.1807 24.9796 33.3147 24.7184C33.4488 24.4573 33.5084 24.1642 33.4871 23.8715C33.4658 23.5787 33.3643 23.2974 33.1939 23.0584C32.8124 22.5184 32.6076 21.8734 32.6076 21.2123C32.6076 20.5511 32.8124 19.9062 33.1939 19.3661C33.3186 19.1961 33.4085 19.0031 33.4581 18.7982C33.5077 18.5933 33.5162 18.3805 33.4831 18.1723C33.4511 17.9631 33.3775 17.7624 33.2668 17.5821C33.1562 17.4017 33.0105 17.2453 32.8385 17.1221C32.6665 16.9988 32.4716 16.9112 32.2653 16.8643C32.0589 16.8175 31.8453 16.8123 31.6369 16.8492C31.4287 16.8828 31.2294 16.9578 31.0508 17.0699C30.8721 17.1819 30.7178 17.3287 30.5969 17.5015C29.8193 18.5872 29.4012 19.8891 29.4012 21.2246C29.4012 22.56 29.8193 23.862 30.5969 24.9477C30.7445 25.1542 30.9394 25.3223 31.1653 25.4379C31.3912 25.5535 31.6416 25.6133 31.8954 25.6123V25.5877Z" fill="#FFA819"/>
<path d="M60.24 23.5631V21.3231C60.24 21.2305 60.2217 21.1387 60.186 21.0532C60.1504 20.9677 60.0982 20.8901 60.0324 20.8249C59.9666 20.7596 59.8885 20.7081 59.8027 20.6732C59.7168 20.6383 59.625 20.6208 59.5323 20.6216C58.1555 20.6145 56.7811 20.7382 55.4277 20.9908C54.6821 20.2741 53.7742 19.7484 52.7815 19.4585C53.5511 18.8068 54.1019 17.9345 54.3596 16.9596C54.6173 15.9847 54.5694 14.9541 54.2224 14.0073C53.8753 13.0605 53.2459 12.2431 52.4192 11.6656C51.5925 11.0882 50.6084 10.7785 49.6 10.7785C48.5916 10.7785 47.6075 11.0882 46.7808 11.6656C45.9541 12.2431 45.3247 13.0605 44.9776 14.0073C44.6306 14.9541 44.5827 15.9847 44.8404 16.9596C45.0981 17.9345 45.6489 18.8068 46.4185 19.4585C45.4257 19.7484 44.5179 20.2741 43.7723 20.9908C42.4168 20.7379 41.0404 20.6143 39.6615 20.6216C39.4755 20.6216 39.297 20.6955 39.1655 20.8271C39.0339 20.9586 38.96 21.1371 38.96 21.3231V23.5631C38.5452 23.7084 38.1857 23.9787 37.931 24.337C37.6764 24.6952 37.5393 25.1236 37.5385 25.5631V26.9785C37.5392 27.4164 37.6757 27.8434 37.9292 28.2004C38.1827 28.5575 38.5407 28.8272 38.9538 28.9724V31.2124C38.953 31.305 38.9706 31.3969 39.0055 31.4827C39.0404 31.5685 39.0919 31.6466 39.1571 31.7124C39.2224 31.7782 39.3 31.8304 39.3855 31.8661C39.471 31.9017 39.5627 31.92 39.6554 31.92C43.0549 31.8243 46.4004 32.7854 49.2308 34.6708C49.3473 34.7489 49.4844 34.7905 49.6246 34.7905C49.7649 34.7905 49.9019 34.7489 50.0185 34.6708C52.8402 32.7915 56.174 31.8307 59.5631 31.92C59.6557 31.92 59.7475 31.9017 59.833 31.8661C59.9185 31.8304 59.9961 31.7782 60.0613 31.7124C60.1266 31.6466 60.1781 31.5685 60.213 31.4827C60.2479 31.3969 60.2654 31.305 60.2646 31.2124V28.9724C60.6778 28.8272 61.0358 28.5575 61.2893 28.2004C61.5428 27.8434 61.6793 27.4164 61.68 26.9785V25.5631C61.6779 25.1214 61.538 24.6913 61.2799 24.3328C61.0218 23.9743 60.6583 23.7052 60.24 23.5631ZM46.0862 15.6739C46.0862 14.9753 46.2933 14.2923 46.6815 13.7114C47.0696 13.1306 47.6213 12.6778 48.2667 12.4105C48.9121 12.1431 49.6224 12.0732 50.3076 12.2095C50.9928 12.3458 51.6222 12.6822 52.1162 13.1762C52.6102 13.6702 52.9466 14.2996 53.0829 14.9848C53.2192 15.67 53.1492 16.3802 52.8819 17.0256C52.6145 17.6711 52.1618 18.2228 51.5809 18.6109C51 18.999 50.3171 19.2062 49.6185 19.2062C48.6804 19.2046 47.781 18.8325 47.116 18.171C46.4509 17.5094 46.0742 16.6119 46.0677 15.6739H46.0862ZM48.2031 20.597H51.0338C51.9906 20.5988 52.9264 20.8765 53.7292 21.397C52.279 21.8357 50.8958 22.4714 49.6185 23.2862C48.3411 22.4714 46.9579 21.8357 45.5077 21.397C46.3078 20.8886 47.2366 20.6196 48.1846 20.6216L48.2031 20.597ZM38.9723 25.52C38.9631 25.422 38.9745 25.3231 39.0058 25.2297C39.037 25.1363 39.0874 25.0504 39.1537 24.9776C39.22 24.9048 39.3008 24.8466 39.3909 24.8068C39.481 24.767 39.5784 24.7464 39.6769 24.7464C39.7754 24.7464 39.8728 24.767 39.9629 24.8068C40.053 24.8466 40.1338 24.9048 40.2001 24.9776C40.2664 25.0504 40.3168 25.1363 40.3481 25.2297C40.3793 25.3231 40.3907 25.422 40.3815 25.52V26.9354C40.3651 27.1109 40.2838 27.274 40.1535 27.3927C40.0231 27.5114 39.8532 27.5772 39.6769 27.5772C39.5006 27.5772 39.3307 27.5114 39.2004 27.3927C39.0701 27.274 38.9887 27.1109 38.9723 26.9354V25.52ZM40.3815 28.9293C40.7947 28.7842 41.1527 28.5145 41.4062 28.1574C41.6597 27.8003 41.7962 27.3734 41.7969 26.9354V25.52C41.7966 25.0813 41.6603 24.6534 41.4069 24.2953C41.1534 23.9371 40.7952 23.6663 40.3815 23.52V22.0431C43.3986 22.0381 46.3548 22.8919 48.9046 24.5047V32.8185C46.3005 31.3404 43.3634 30.5485 40.3692 30.517L40.3815 28.9293ZM50.32 32.7754V24.5354C52.8698 22.9227 55.826 22.0689 58.8431 22.0739V23.5939C58.4294 23.7401 58.0712 24.011 57.8178 24.3691C57.5643 24.7273 57.428 25.1551 57.4277 25.5939V27.0093C57.4284 27.4472 57.5649 27.8741 57.8184 28.2312C58.0719 28.5883 58.4299 28.858 58.8431 29.0031V30.5477C55.8516 30.5698 52.9147 31.3512 50.3077 32.8185L50.32 32.7754ZM60.2523 26.9354C60.2359 27.1109 60.1546 27.274 60.0242 27.3927C59.8939 27.5114 59.724 27.5772 59.5477 27.5772C59.3714 27.5772 59.2015 27.5114 59.0712 27.3927C58.9408 27.274 58.8595 27.1109 58.8431 26.9354V25.52C58.8339 25.422 58.8453 25.3231 58.8765 25.2297C58.9078 25.1363 58.9582 25.0504 59.0245 24.9776C59.0908 24.9048 59.1716 24.8466 59.2617 24.8068C59.3518 24.767 59.4492 24.7464 59.5477 24.7464C59.6462 24.7464 59.7436 24.767 59.8337 24.8068C59.9238 24.8466 60.0046 24.9048 60.0709 24.9776C60.1372 25.0504 60.1876 25.1363 60.2188 25.2297C60.2501 25.3231 60.2615 25.422 60.2523 25.52V26.9354Z" fill="#FFA819"/>
</g>
<defs>
<clipPath id="clip0">
<rect width="96" height="72" fill="white"/>
</clipPath>
</defs>
</svg>

<svg xmlns="http://www.w3.org/2000/svg" xmlns:xlink="http://www.w3.org/1999/xlink" width="96" height="72" fill="none" xmlns:v="https://vecta.io/nano"><g clip-path="url(#A)" fill="#ffa819"><path d="M94.4 59.2H88V4.8A4.8 4.8 0 0 0 83.2 0H12.8a4.8 4.8 0 0 0-3.39 1.41A4.8 4.8 0 0 0 8 4.8v54.4H1.6a1.6 1.6 0 0 0-1.13.47A1.6 1.6 0 0 0 0 60.8v3.6A7.6 7.6 0 0 0 7.6 72h80.8a7.6 7.6 0 0 0 7.6-7.6v-3.6a1.6 1.6 0 0 0-1.6-1.6zM11.2 4.8a1.6 1.6 0 0 1 1.6-1.6h70.4a1.6 1.6 0 0 1 1.6 1.6v54.4H59.2a1.6 1.6 0 0 0-1.13.47l-2.73 2.73H40.66l-2.73-2.7a1.6 1.6 0 0 0-1.13-.47H11.2V4.8zm81.6 59.6a4.4 4.4 0 0 1-4.4 4.4H7.6a4.4 4.4 0 0 1-4.4-4.4v-2h32.94l2.73 2.73a1.6 1.6 0 0 0 1.13.47h16a1.6 1.6 0 0 0 1.13-.47l2.73-2.73H92.8v2zm-11.2-10V8A1.6 1.6 0 0 0 80 6.4H16A1.6 1.6 0 0 0 14.4 8v46.4A1.6 1.6 0 0 0 16 56h64a1.6 1.6 0 0 0 .61-.12c.2-.08.37-.2.52-.35a1.6 1.6 0 0 0 .47-1.13zm-3.2-1.6H17.6V9.6h60.8v43.2zm-48-3.2h40A1.6 1.6 0 0 0 72 48v-9.6a1.6 1.6 0 0 0-1.6-1.6h-40a1.6 1.6 0 0 0-1.6 1.6V48a1.6 1.6 0 0 0 1.6 1.6zm32-9.6h6.4v6.4h-6.4V40zM32 40h27.2v6.4H32V40z"/><use xlink:href="#B"/><path d="M43.2 41.6h-1.6a1.6 1.6 0 0 0 0 3.2h1.6a1.6 1.6 0 0 0 0-3.2zm6.4 0H48a1.6 1.6 0 0 0 0 3.2h1.6a1.6 1.6 0 1 0 0-3.2zm6.4 0h-1.6a1.6 1.6 0 0 0 0 3.2H56a1.6 1.6 0 1 0 0-3.2zM26.1 28.92a1.6 1.6 0 0 0 1.3-2.53c-1.16-1.63-1.8-3.58-1.8-5.58s.63-3.95 1.8-5.58a1.6 1.6 0 0 0-.36-2.25 1.6 1.6 0 0 0-2.24.39 12.8 12.8 0 0 0 0 14.88c.15.2.34.38.57.5s.48.18.73.18zm5.8-3.32a1.6 1.6 0 0 0 1.3-2.53 3.2 3.2 0 0 1 0-3.69 1.6 1.6 0 0 0 .29-1.19c-.03-.2-.1-.4-.22-.6s-.26-.34-.43-.46-.37-.2-.57-.26-.42-.05-.63-.02-.4.1-.6.22-.33.26-.45.43a6.4 6.4 0 0 0 0 7.45c.15.2.34.37.57.5s.48.18.73.17h0zm28.34-2.04v-2.24a.7.7 0 0 0-.71-.7c-1.38-.01-2.75.12-4.1.37a6.4 6.4 0 0 0-2.65-1.53 4.9 4.9 0 0 0 1.44-5.45 4.9 4.9 0 0 0-4.62-3.23 4.9 4.9 0 0 0-4.62 3.23 4.9 4.9 0 0 0 1.44 5.45 6.4 6.4 0 0 0-2.65 1.53 21.8 21.8 0 0 0-4.11-.37.7.7 0 0 0-.7.7v2.24a2.3 2.3 0 0 0-1.03.77 2.1 2.1 0 0 0-.4 1.23v1.42c0 .44.14.86.4 1.22s.6.63 1.02.77v2.24a.7.7 0 0 0 .2.5c.07.07.14.12.23.15a.7.7 0 0 0 .27.05 16.5 16.5 0 0 1 9.58 2.75.7.7 0 0 0 .4.12.7.7 0 0 0 .4-.12c2.82-1.88 6.16-2.84 9.54-2.75a.7.7 0 0 0 .7-.71v-2.24a2.1 2.1 0 0 0 1.02-.77c.25-.37.4-.78.4-1.22v-1.42a2.1 2.1 0 0 0-1.44-2zm-14.15-7.9c0-.7.2-1.38.6-1.96s.94-1.03 1.6-1.3a3.5 3.5 0 0 1 2.04-.2c.68.14 1.3.47 1.8.97s.83 1.12.97 1.8.07 1.4-.2 2.04a3.7 3.7 0 0 1-1.3 1.6c-.58.4-1.26.6-1.96.6a3.5 3.5 0 0 1-2.5-1.04 3.6 3.6 0 0 1-1.05-2.5h.02zm2.12 4.92h2.83c.96 0 1.9.28 2.7.8-1.45.44-2.83 1.07-4.1 1.9-1.28-.8-2.66-1.45-4.1-1.9.8-.5 1.73-.78 2.68-.78l.02-.02zm-9.23 4.92c-.01-.1 0-.2.03-.3s.08-.18.15-.25.15-.13.24-.17.2-.06.3-.06a.8.8 0 0 1 .3.06c.1.04.17.1.24.17s.12.16.15.25.04.2.03.3v1.42c-.02.18-.1.34-.23.46a.7.7 0 0 1-.48.18c-.18 0-.35-.07-.48-.18s-.2-.28-.23-.46V25.5zm1.4 3.4a2.1 2.1 0 0 0 1.02-.77c.25-.37.4-.78.4-1.22V25.5c0-.44-.14-.87-.4-1.22s-.6-.63-1.03-.78V22a15.9 15.9 0 0 1 8.52 2.46v8.3a17.6 17.6 0 0 0-8.54-2.3l.01-1.6zm9.94 3.85V24.5a15.9 15.9 0 0 1 8.52-2.46v1.52c-.4.15-.77.42-1.03.78s-.4.8-.4 1.22V27c0 .44.14.86.4 1.22s.6.63 1.02.77v1.54a17.6 17.6 0 0 0-8.54 2.27l.01-.04zm9.93-5.84c-.02.18-.1.34-.23.46a.7.7 0 0 1-.48.18c-.18 0-.35-.07-.48-.18s-.2-.28-.23-.46V25.5c-.01-.1 0-.2.03-.3s.08-.18.15-.25.15-.13.24-.17.2-.06.3-.06a.8.8 0 0 1 .3.06c.1.04.17.1.24.17s.12.16.15.25.04.2.03.3v1.42z"/></g><defs><clipPath id="A"><path fill="#fff" d="M0 0h96v72H0z"/></clipPath><path id="B" d="M36.8 41.6h-1.6a1.6 1.6 0 0 0-1.6 1.6 1.6 1.6 0 0 0 1.6 1.6h1.6a1.6 1.6 0 0 0 1.6-1.6 1.6 1.6 0 0 0-1.6-1.6z"/></defs></svg>
